packages/foundations/assets/icons/functional/images/accessibility/support_dog.svg

<svg xmlns="http://www.w3.org/2000/svg" width="32" height="32" fill="none"><path fill="#1A1C1F" fill-rule="evenodd" d="M4.337 2.161c-.299.18-.526.623-.477.931.019.116.063.275.099.353.035.078 2.297 2.278 5.026 4.889s4.97 4.769 4.979 4.794-2.02.045-4.512.045h-4.53l-.181-.122c-.393-.264-.653-1.076-.731-2.287-.039-.599-.06-.7-.184-.887a1.01 1.01 0 0 0-1.261-.333c-.492.251-.612.606-.537 1.586.082 1.086.319 1.973.696 2.609.207.349.711.881.951 1.005l.162.084.015 6.012.015 6.013.179.519c.334.965.979 1.734 1.822 2.172 1.638.852 3.572.449 4.728-.985a3.64 3.64 0 0 0 .71-1.434c.097-.382.107-.596.107-2.233 0-1.702.006-1.808.094-1.774.051.02.291.094.533.164 1.489.433 2.737.425 4.29-.025l.516-.15.019 1.9c.018 1.878.02 1.904.156 2.309.689 2.04 2.798 3.139 4.787 2.493.597-.194 1.01-.455 1.5-.95.488-.493.741-.907.967-1.579l.125-.373.015-6.328.014-6.327.119-.032c.065-.018.23-.032.365-.033.357-.001 1.09-.138 1.603-.299a4.63 4.63 0 0 0 2.105-1.315c.799-.841 1.214-1.865 1.351-3.328.072-.767.015-1.064-.257-1.347-.186-.193-.326-.246-2.968-1.123l-2.774-.92-1.893-1.884c-1.265-1.259-1.943-1.896-2.042-1.921-.5-.122-1.03.11-1.212.531-.057.129-.449 2.342-.956 5.39-.473 2.844-.871 5.181-.883 5.194-.032.031-.102-.036-6.128-5.805C7.933 4.559 5.45 2.213 5.343 2.147c-.28-.171-.707-.165-1.006.014M22.96 7.587c.088.043 1.228.433 2.533.866 1.306.433 2.396.808 2.423.833.08.073-.109.83-.315 1.263-.392.827-1.118 1.345-2.188 1.563-.442.091-.688.106-1.447.092l-.915-.017-.205.163c-.389.309-.417.425-.436 1.801-.016 1.113-.025 1.215-.107 1.186a287 287 0 0 1-1.746-.679L18.9 14.01l.736-4.405c.404-2.423.736-4.428.736-4.457.001-.028.547.491 1.215 1.154.667.663 1.285 1.241 1.373 1.285m-7.493 10.702v3.142l-.28.063c-.507.114-1.407.127-1.925.03a9.5 9.5 0 0 1-2.083-.691c-.581-.271-.87-.311-1.168-.16-.243.123-.354.232-.47.458-.095.186-.101.351-.102 2.694-.001 2.797-.014 2.923-.345 3.404-.78 1.133-2.456.976-3.078-.287l-.123-.249-.014-5.773-.014-5.773h9.602zm4.572-1.687 2.358.918.002 4.56.001 4.56-.152.32a2 2 0 0 1-.905.898c-.389.178-1.058.164-1.457-.032a2.1 2.1 0 0 1-.856-.847c-.123-.232-.123-.233-.15-2.952-.03-3.058-.008-2.894-.445-3.248-.185-.15-.241-.166-.573-.166h-.369v-2.499c0-2.357.006-2.497.094-2.465z"/></svg>

<svg width="32" height="32" viewBox="0 0 32 32" fill="none" xmlns="http://www.w3.org/2000/svg"><path d="M4.337 2.161 C 4.038 2.341,3.811 2.784,3.860 3.092 C 3.879 3.208,3.923 3.367,3.959 3.445 C 3.994 3.523,6.256 5.723,8.985 8.334 C 11.714 10.946,13.955 13.103,13.964 13.128 C 13.974 13.153,11.944 13.173,9.452 13.173 L 4.922 13.173 4.741 13.051 C 4.348 12.787,4.088 11.975,4.010 10.764 C 3.971 10.165,3.950 10.064,3.826 9.877 C 3.563 9.480,2.989 9.328,2.565 9.544 C 2.073 9.795,1.953 10.150,2.028 11.130 C 2.110 12.216,2.347 13.103,2.724 13.739 C 2.931 14.088,3.435 14.620,3.675 14.744 L 3.837 14.828 3.852 20.840 L 3.867 26.853 4.046 27.372 C 4.380 28.337,5.025 29.106,5.868 29.544 C 7.506 30.396,9.440 29.993,10.596 28.559 C 10.939 28.133,11.168 27.672,11.306 27.125 C 11.403 26.743,11.413 26.529,11.413 24.892 C 11.413 23.190,11.419 23.084,11.507 23.118 C 11.558 23.138,11.798 23.212,12.040 23.282 C 13.529 23.715,14.777 23.707,16.330 23.257 L 16.846 23.107 16.865 25.007 C 16.883 26.885,16.885 26.911,17.021 27.316 C 17.710 29.356,19.819 30.455,21.808 29.809 C 22.405 29.615,22.818 29.354,23.308 28.859 C 23.796 28.366,24.049 27.952,24.275 27.280 L 24.400 26.907 24.415 20.579 L 24.429 14.252 24.548 14.220 C 24.613 14.202,24.778 14.188,24.913 14.187 C 25.270 14.186,26.003 14.049,26.516 13.888 C 27.378 13.616,27.999 13.228,28.621 12.573 C 29.420 11.732,29.835 10.708,29.972 9.245 C 30.044 8.478,29.987 8.181,29.715 7.898 C 29.529 7.705,29.389 7.652,26.747 6.775 L 23.973 5.855 22.080 3.971 C 20.815 2.712,20.137 2.075,20.038 2.050 C 19.538 1.928,19.008 2.160,18.826 2.581 C 18.769 2.710,18.377 4.923,17.870 7.971 C 17.397 10.815,16.999 13.152,16.987 13.165 C 16.955 13.196,16.885 13.129,10.859 7.360 C 7.933 4.559,5.450 2.213,5.343 2.147 C 5.063 1.976,4.636 1.982,4.337 2.161 M22.960 7.587 C 23.048 7.630,24.188 8.020,25.493 8.453 C 26.799 8.886,27.889 9.261,27.916 9.286 C 27.996 9.359,27.807 10.116,27.601 10.549 C 27.209 11.376,26.483 11.894,25.413 12.112 C 24.971 12.203,24.725 12.218,23.966 12.204 L 23.051 12.187 22.846 12.350 C 22.457 12.659,22.429 12.775,22.410 14.151 C 22.394 15.264,22.385 15.366,22.303 15.337 C 22.254 15.320,21.468 15.014,20.557 14.658 L 18.900 14.010 19.636 9.605 C 20.040 7.182,20.372 5.177,20.372 5.148 C 20.373 5.120,20.919 5.639,21.587 6.302 C 22.254 6.965,22.872 7.543,22.960 7.587 M15.467 18.289 L 15.467 21.431 15.187 21.494 C 14.680 21.608,13.780 21.621,13.262 21.524 C 12.641 21.407,11.831 21.138,11.179 20.833 C 10.598 20.562,10.309 20.522,10.011 20.673 C 9.768 20.796,9.657 20.905,9.541 21.131 C 9.446 21.317,9.440 21.482,9.439 23.825 C 9.438 26.622,9.425 26.748,9.094 27.229 C 8.314 28.362,6.638 28.205,6.016 26.942 L 5.893 26.693 5.879 20.920 L 5.865 15.147 10.666 15.147 L 15.467 15.147 15.467 18.289 M20.039 16.602 L 22.397 17.520 22.399 22.080 L 22.400 26.640 22.248 26.960 C 22.073 27.329,21.710 27.688,21.343 27.858 C 20.954 28.036,20.285 28.022,19.886 27.826 C 19.552 27.662,19.219 27.332,19.030 26.979 C 18.907 26.747,18.907 26.746,18.880 24.027 C 18.850 20.969,18.872 21.133,18.435 20.779 C 18.250 20.629,18.194 20.613,17.862 20.613 L 17.493 20.613 17.493 18.114 C 17.493 15.757,17.499 15.617,17.587 15.649 C 17.638 15.668,18.741 16.097,20.039 16.602 " fill="#1A1C1F" stroke="none" fill-rule="evenodd"></path></svg>
